dist/intermediate-svg/lockOpen.svg

<?xml version="1.0" encoding="utf-8"?><svg width="10" height="14" fill="none" xmlns="http://www.w3.org/2000/svg" viewBox="0 0 10 14"><path d="M8.57143 6.64286H8.14286V3.64286C8.14286 2.44286 7.2 1.5 6 1.5H3.42857C2.22857 1.5 1.28571 2.44286 1.28571 3.64286V4.5H3V3.64286C3 3.42857 3.21429 3.21429 3.42857 3.21429H6C6.21429 3.21429 6.42857 3.42857 6.42857 3.64286V6.64286H0.857143C0.385714 6.64286 0 7.02857 0 7.5V12.6429C0 13.1143 0.385714 13.5 0.857143 13.5H8.57143C9.04286 13.5 9.42857 13.1143 9.42857 12.6429V7.5C9.42857 7.02857 9.04286 6.64286 8.57143 6.64286ZM5.14286 10.3714V11.5714C5.14286 11.7 5.05714 11.7857 4.92857 11.7857H4.5C4.37143 11.7857 4.28571 11.7 4.28571 11.5714V10.3714C4.02857 10.2428 3.85714 9.94286 3.85714 9.64286C3.85714 9.17143 4.24286 8.78571 4.71429 8.78571C5.18571 8.78571 5.57143 9.17143 5.57143 9.64286C5.57143 9.94286 5.4 10.2428 5.14286 10.3714Z" fill="#fff"/><path d="M8.57143 5.64286H8.14286V2.64286C8.14286 1.44286 7.2 0.5 6 0.5H3.42857C2.22857 0.5 1.28571 1.44286 1.28571 2.64286V3.5H3V2.64286C3 2.42857 3.21429 2.21429 3.42857 2.21429H6C6.21429 2.21429 6.42857 2.42857 6.42857 2.64286V5.64286H0.857143C0.385714 5.64286 0 6.02857 0 6.5V11.6429C0 12.1143 0.385714 12.5 0.857143 12.5H8.57143C9.04286 12.5 9.42857 12.1143 9.42857 11.6429V6.5C9.42857 6.02857 9.04286 5.64286 8.57143 5.64286ZM5.14286 9.37141V10.5714C5.14286 10.7 5.05714 10.7857 4.92857 10.7857H4.5C4.37143 10.7857 4.28571 10.7 4.28571 10.5714V9.37141C4.02857 9.24284 3.85714 8.94286 3.85714 8.64286C3.85714 8.17143 4.24286 7.78571 4.71429 7.78571C5.18571 7.78571 5.57143 8.17143 5.57143 8.64286C5.57143 8.94286 5.4 9.24284 5.14286 9.37141Z" fill="#1E6393"/></svg>

<?xml version="1.0" encoding="utf-8"?><svg width="10" height="14" fill="none" xmlns="http://www.w3.org/2000/svg" viewBox="0 0 10 14"><path d="M8.571 6.643h-.428v-3C8.143 2.443 7.2 1.5 6 1.5H3.429c-1.2 0-2.143.943-2.143 2.143V4.5H3v-.857a.46.46 0 01.429-.429H6a.46.46 0 01.429.429v3H.857A.86.86 0 000 7.5v5.143a.86.86 0 00.857.857h7.714a.86.86 0 00.858-.857V7.5a.86.86 0 00-.858-.857zM5.143 10.37v1.2c0 .129-.086.215-.214.215H4.5c-.129 0-.214-.086-.214-.215v-1.2c-.257-.128-.429-.428-.429-.728a.86.86 0 01.857-.857.86.86 0 01.857.857c0 .3-.171.6-.428.728z" fill="#fff"/><path d="M8.571 5.643h-.428v-3C8.143 1.443 7.2.5 6 .5H3.429c-1.2 0-2.143.943-2.143 2.143V3.5H3v-.857a.46.46 0 01.429-.429H6a.46.46 0 01.429.429v3H.857A.86.86 0 000 6.5v5.143a.86.86 0 00.857.857h7.714a.86.86 0 00.858-.857V6.5a.86.86 0 00-.858-.857zM5.143 9.37v1.2c0 .129-.086.215-.214.215H4.5c-.129 0-.214-.086-.214-.215v-1.2c-.257-.128-.429-.428-.429-.728a.86.86 0 01.857-.857.86.86 0 01.857.857c0 .3-.171.6-.428.728z" fill="#1E6393"/></svg>
